X:1
T:[ID 7-111]
T:[ID 7-111]
T:Bezeichnung standardisiert: Anglaise Angeloise
T:Urheber unbekannt Datum in der hier transkribierten schriftlichen Quelle: 1776 - 1791
C:Urheber unbekannt
C:Datum in der hier transkribierten schriftlichen Quelle: 1776 - 1791
L:1/8
M:2/4
K:A
V:1 treble 
V:1
 E/D/ | CEAc | eaec | dcBA | GB/G/ EE/D/ | CEAc | eaec | dBAG | A2 z :: e | ed/e/ fc | (cB)(Bd) | %12
 dc/d/ eB | cA AE/D/ | CEAc | eaec | dBAG | A2 z :: c | (cB)(Bd) | (dc)(ce) | (ed)(df) | (fe)(ea) | %23
 gfed | cBAG | cB/c/ d/c/B/A/ | GB/G/ E :: E | E2 FG | GABc | cB/c/ dc | cBBB | %32
 (A/B/c/B/) (A/B/c/B/) | (A/B/c/d/) (e/f/g/a/) | (g/f/e/d/) (c/B/A/G/) | AA A :| %36

